!!!OTL: DER HIMMEL IST SO TRUEBE
!!!ARE: Europa, Mitteleuropa, Deutschland, Hannover, Dransfeld, Imbsen
!!!SCT: E0709
!!!YEM: Copyright 1995, estate of Helmut Schaffrath.
**kern
*ICvox
*Ivox
*M3/4
*k[f#c#g#]
*A:
{4e
=1
4a
4e
8e
8e
=2
8e
8d
4d}
{8e
8a
=3
4.g#
8f#
8e
8d
=4
2c#}
{4e
=5
4cc#
4b
8a
8g#
=6
8g#
8f#
4f#}
{8b
8a
=7
4.g#
8e
8f#
8g#
=8
4a
4r}
==
!!!AGN: Liebes - Lied, Leid, Klage
!!!ONB: ESAC (Essen Associative Code) Database: ERK2
!!!AMT: simple triple
!!!AIN: vox
!!!EED: Helmut Schaffrath
!!!EEV: 1.0
*-
